public/images/frog/first-review-congrats.svg

<svg width="120" height="119" viewBox="0 0 120 119" fill="none" xmlns="http://www.w3.org/2000/svg">
<g id="Group 1439">
<g id="Group 1437">
<path id="Vector" d="M71.1236 77.4801C69.562 78.0991 67.9155 78.575 66.2797 79.0808C64.856 79.5226 63.4259 79.9452 61.928 80.3059C61.8898 80.2248 61.9047 80.1416 61.9365 80.0221C62.9931 79.2857 64.0434 78.6092 65.2294 78.1759C67.1241 77.4823 69.0676 77.1749 71.1236 77.4801Z" fill="#DBFF9E"/>
<path id="Vector_2" d="M64.2448 76.5902C64.4581 75.5646 64.876 74.5935 65.2507 73.5635C68.467 73.4536 71.6275 73.1159 74.7591 72.5041C75.3245 72.393 75.8839 72.2646 76.4472 72.1491C76.5603 72.1265 76.6766 72.0591 76.8301 72.1976C73.0571 74.872 68.8198 76.138 64.2448 76.5902Z" fill="#00C62E"/>
<path id="Vector_3" d="M29.5127 31.8539C29.623 31.6896 29.7525 31.585 29.8543 31.4591C32.0821 28.6674 34.6918 26.2791 37.5668 24.1918C38.4091 23.5793 38.9374 22.8771 39.2429 21.8676C40.2062 18.6854 41.3498 15.565 42.7905 12.5642C43.7134 10.6412 44.8294 8.83562 46.2849 7.26266C47.4879 5.96501 48.8374 4.87226 50.5029 4.2213C51.9775 3.64504 53.4903 3.44442 55.0307 3.87128C56.8617 4.37924 58.1305 5.58938 58.9941 7.26052C59.3654 7.97764 59.6051 8.74598 59.8831 9.49939C59.9234 9.61037 59.9319 9.74696 60.1058 9.8238C60.3286 9.70428 60.2926 9.4631 60.3074 9.25608C60.3689 8.43224 60.4559 7.60841 60.683 6.81232C61.2388 4.86585 62.3464 3.37185 64.2368 2.55015C65.7687 1.88425 67.3579 1.87785 68.9534 2.23854C71.1134 2.72303 72.9423 3.85847 74.6057 5.27564C76.1312 6.57542 77.4637 8.06728 78.6603 9.67653C80.3704 11.9773 81.9957 14.3399 83.43 16.8243C83.8734 17.5926 84.4654 18.0472 85.2695 18.3524C87.2703 19.1165 89.1904 20.0577 91.0236 21.1739C94.9127 23.543 98.3224 26.4414 101.013 30.1657C102.305 31.9542 103.234 33.9135 103.996 35.9709C104.528 37.4094 104.915 38.8864 105.082 40.4103C105.475 43.9788 104.883 47.4022 103.518 50.7061C102.046 54.2682 99.8712 57.3458 97.1575 60.0542C96.3852 60.8247 95.5959 61.5802 94.76 62.2824C94.446 62.5471 94.446 62.5705 94.7218 62.8629C95.1313 63.2983 95.5535 63.7209 95.9736 64.1478C99.4108 67.6395 101.997 71.7117 104.076 76.1297C105.326 78.7826 106.376 81.5145 107.212 84.3275C107.355 84.8055 107.565 84.9827 108.078 85.0745C112.372 85.83 115.126 88.3911 116.287 92.5658C117.331 96.32 116.552 99.8437 114.52 103.116C114.259 103.534 113.964 103.935 113.654 104.319C113.478 104.539 113.457 104.684 113.679 104.885C114.061 105.231 114.418 105.602 114.778 105.971C116.134 107.361 117.412 108.812 118.455 110.46C119.143 111.546 119.718 112.681 119.934 113.971C120.225 115.704 119.559 117.129 118.033 117.977C117.064 118.514 116.005 118.747 114.916 118.877C112.88 119.123 110.851 118.973 108.833 118.681C103.442 117.9 98.2566 116.32 93.1666 114.427C91.9232 113.964 90.7648 113.77 89.4811 114.165C88.4627 114.479 87.3955 114.609 86.29 114.765C85.9951 114.517 86.1288 114.259 86.237 114.02C87.3361 111.621 87.9471 109.085 88.2611 106.477C88.4839 104.616 88.4754 102.744 88.3439 100.868C88.1296 97.8674 87.457 94.9754 86.4513 92.1496C86.4089 92.0301 86.4089 91.9063 86.4089 91.7334C86.4513 91.2255 86.7908 90.9608 87.0836 90.6812C89.2053 88.6622 90.9451 86.3486 92.3476 83.779C93.9792 80.7931 95.1376 77.6237 95.9566 74.3241C96.5507 71.9294 96.9347 69.5134 96.818 67.0355C96.8096 66.8711 96.8223 66.7047 96.8011 66.5403C96.7014 65.7762 96.4892 65.5906 95.7275 65.5778C94.6985 65.5628 93.7585 65.9577 92.791 66.2266C89.4323 67.1614 86.5001 68.9329 83.6697 70.9113C82.0848 72.019 80.4829 73.1054 79.1632 74.5503C78.7791 74.9708 78.2381 75.1564 77.7331 75.3869C75.6708 76.326 73.5406 77.073 71.3107 77.6856C68.3127 77.3676 65.5757 77.978 63.0678 79.5829C62.7432 79.79 62.444 80.0632 61.973 80.0183C61.8478 79.9223 61.7947 79.8177 61.8202 79.7217C62.0706 78.7356 62.2318 77.7133 62.9277 76.8532C64.3069 76.4178 65.7051 76.2983 67.0587 75.9547C69.6303 75.2994 72.0193 74.2387 74.2535 72.8151C74.4254 72.7063 74.6206 72.6358 74.7182 72.5483C73.7082 72.8663 72.5943 73.035 71.4931 73.2569C69.2781 73.703 67.0312 73.8908 64.7885 74.1128C64.5403 74.1384 64.2941 74.1341 64.0289 73.9783C63.6979 73.5408 63.9292 73.1502 64.0523 72.7703C65.9576 66.8626 67.9053 60.9698 69.8764 55.0856C70.6296 52.8361 71.3086 50.5652 72.066 48.3178C72.4458 47.1887 72.3461 46.9881 71.2088 46.5954C67.9096 45.4536 64.6166 44.2904 61.3195 43.1443C54.1799 40.6642 47.0445 38.1735 39.8985 35.7127C36.7732 34.637 33.6501 33.5507 30.529 32.46C30.1556 32.3298 29.7397 32.2872 29.5127 31.8539Z" fill="#00CF4B"/>
<g id="Group 494">
<path id="image 1" d="M24.3401 29.8854C24.5098 29.3912 25.031 29.1123 25.5362 29.2455L65.148 39.6879C65.7111 39.8363 66.0303 40.4333 65.8411 40.9842L43.519 105.998C43.3397 106.52 42.7714 106.797 42.2497 106.616L3.65616 93.2074C3.13446 93.0261 2.85693 92.4558 3.03628 91.9334L24.3401 29.8854Z" fill="#FE49A9"/>
<path id="Union" fill-rule="evenodd" clip-rule="evenodd" d="M63.4217 40.2675L24.2529 30.1391L2.33904 93.9639L40.4405 107.201L63.4217 40.2675ZM63.422 40.2679L71.8799 46.6861L62.3545 43.3767L63.422 40.2679Z" fill="white"/>
<path id="Rectangle 408" d="M24.3516 29.8545L27.0306 30.7852L4.42127 96.6355L2.32448 94.0091L24.3516 29.8545Z" fill="#FE49A9"/>
</g>
<rect id="Rectangle 60" width="69.5283" height="51.8898" rx="1" transform="matrix(-0.324736 0.945805 0.944615 0.32818 25.3867 30.3145)" fill="#FE49A9"/>
<path id="Vector_4" d="M55.0362 102.694C55.7003 102.637 56.3368 102.618 57.0158 102.581C57.1685 102.263 57.4338 102.28 57.6735 102.261C65.0423 101.713 72.0821 99.9285 78.6913 96.5627C81.2077 95.2821 83.5925 93.7881 85.7227 91.9142C85.9243 91.7371 86.1365 91.5706 86.4759 91.6026C87.3883 93.9012 88.029 96.2426 88.3621 98.6628C89.0687 103.781 88.691 108.781 86.6987 113.596C86.5502 113.957 86.3911 114.316 86.2319 114.717C84.9801 115.02 83.7092 115.105 82.4489 115.272C78.1312 115.844 73.7901 116.117 69.4385 116.207C66.5041 116.266 63.5698 116.224 60.5994 115.94C59.6234 115.304 59.1778 114.307 58.6347 113.4C56.8142 110.352 55.6451 107.051 54.9641 103.57C54.9132 103.288 54.8368 103.006 55.0362 102.694Z" fill="#DBFF9E"/>
<path id="Vector_5" d="M20.5777 40.6654C21.8656 41.1243 22.9986 41.7561 23.9619 42.7015C25.1501 43.8647 25.7611 45.2904 26.0136 46.8997C26.4549 49.7127 25.9309 52.404 24.9549 55.0292C23.9831 57.6415 22.6358 60.0405 20.7963 62.1406C19.8351 63.2376 18.7149 64.1319 17.3718 64.7146C15.8463 65.3741 14.3144 65.4658 12.7443 64.689C12.6276 64.6015 12.5619 64.5182 12.4791 64.4606C11.5159 63.7947 10.8687 62.8769 10.4274 61.8077C9.71664 60.0832 9.24774 58.301 9.03556 56.4357C8.69397 53.4178 8.88068 50.4597 9.86092 47.5741C10.7096 45.077 12.1078 42.9961 14.3759 41.5768C16.154 40.4627 18.0614 40.1255 20.1067 40.6099C20.2468 40.642 20.391 40.6526 20.5777 40.6654Z" fill="#00CF4B"/>
<path id="Vector_6" d="M55.0176 102.64C55.7878 107.032 57.3133 111.094 59.8021 114.773C60.044 115.132 60.3028 115.478 60.5553 115.875C59.0171 115.832 57.4958 115.589 55.9745 115.354C55.4271 115.268 54.8797 115.177 54.3344 115.074C53.9737 115.006 53.6427 115.098 53.3075 115.202C50.458 116.08 47.5704 116.807 44.636 117.339C41.5362 117.9 38.4151 118.254 35.2559 118.154C33.5861 118.101 31.9375 117.911 30.3377 117.396C29.5506 117.145 28.8016 116.807 28.1354 116.308C26.6247 115.179 26.0773 113.687 26.4889 111.841C26.6523 111.107 26.962 110.434 27.3376 109.79C27.9232 108.787 28.6573 107.899 29.472 107.075C29.8921 106.65 30.342 106.253 30.7239 105.73C31.2649 105.765 31.7359 105.984 32.2197 106.151C37.9908 108.14 43.7576 110.138 49.5266 112.131C49.76 112.212 49.9934 112.295 50.231 112.355C50.8102 112.505 51.1731 112.321 51.4107 111.76C51.4913 111.57 51.5507 111.371 51.6165 111.175C52.5013 108.511 53.386 105.848 54.2708 103.186C54.4554 102.636 54.4596 102.638 55.0176 102.64Z" fill="#00CF4B"/>
<path id="Vector_7" d="M34.8953 71.8499C36.448 67.7653 37.8576 63.7083 39.6597 59.5995C36.9624 61.0095 34.1878 61.7069 31.5084 62.6592C31.332 62.7212 31.1495 62.7702 30.9762 62.8356C30.6655 62.9546 30.5308 62.8243 30.4402 62.5276C30.1948 61.7223 29.92 60.9257 29.6646 60.1265C29.3974 59.2946 29.1367 58.463 28.8727 57.6312C28.6058 56.7897 28.6027 56.7864 29.471 56.5047C31.5177 55.8386 33.5676 55.1757 35.6144 54.5095C38.0757 53.7083 40.5433 52.9138 42.9988 52.0931C43.4985 51.9253 43.9441 51.9302 44.4354 52.1205C45.8614 52.6769 47.2984 53.1949 48.7315 53.7322C49.4337 53.9939 49.4398 54.0038 49.1747 54.7151C46.6006 61.6362 44.0264 68.5574 41.4491 75.4785C40.4804 78.0778 39.5054 80.6738 38.5368 83.2731C38.4518 83.5028 38.3796 83.7393 38.2905 84.0011C39.0266 84.4124 39.8147 84.6156 40.5644 84.9079C41.7576 85.3729 42.9617 85.7994 44.1653 86.2388C44.4591 86.3452 44.652 86.4742 44.5107 86.8505C43.8016 88.7094 43.1085 90.5753 42.3844 92.5015C41.0244 92.0021 39.7122 91.5236 38.4001 91.0386C33.4301 89.1919 28.46 87.3451 23.4868 85.4951C23.3112 85.4312 23.1392 85.3546 22.9602 85.2972C22.65 85.1999 22.6008 85.0208 22.717 84.7243C23.055 83.8541 23.3676 82.9733 23.6962 82.0963C24.0035 81.2799 24.346 80.4743 24.6085 79.6435C24.7633 79.1482 24.9943 79.0976 25.4315 79.2636C27.094 79.8987 28.7637 80.5115 30.43 81.1306C30.6056 81.1945 30.7881 81.2456 30.9567 81.3253C31.2206 81.4566 31.3559 81.3674 31.445 81.1088C31.5448 80.815 31.6703 80.5286 31.7799 80.2352C32.8088 77.4699 33.8412 74.6983 34.8953 71.8499Z" fill="#FFB6DD"/>
<path id="Vector_8" d="M86.5467 91.5795C86.4724 91.65 86.413 91.6734 86.3684 91.714C82.6469 95.0008 78.3568 97.3101 73.7484 99.0389C68.4059 101.041 62.8831 102.221 57.1226 102.56C56.1996 102.494 55.3382 102.537 54.4768 102.533C52.4272 102.522 50.4689 102.117 48.6909 101.06C46.4503 99.7282 45.2855 97.7092 45.1327 95.1139C45.0075 93.0116 45.2685 90.9542 45.9772 88.9608C47.0189 86.0283 48.9836 84.0498 51.918 83.0296C53.5708 82.4533 55.2618 82.0201 56.9528 81.5868C58.5654 81.1728 60.1779 80.763 61.8328 80.3318C62.1086 80.0587 62.4205 79.9562 62.7388 79.8687C65.0769 79.2306 67.3939 78.5241 69.6874 77.7408C70.1436 77.585 70.604 77.5402 71.1196 77.5125C71.6182 77.4399 72.0341 77.2521 72.4605 77.1091C74.3701 76.4709 76.2733 75.8157 78.098 74.9513C78.4374 74.7891 78.7472 74.6056 78.9976 74.3217C79.7784 73.4381 80.6928 72.7103 81.6476 72.0231C83.3174 70.8193 85.0233 69.6732 86.7695 68.5847C89.1734 67.0865 91.8043 66.1773 94.5159 65.4601C94.9954 65.3342 95.4897 65.3193 95.9799 65.2745C96.3787 65.2382 96.6461 65.4025 96.8201 65.7611C96.9686 66.0641 97.0259 66.3843 97.0513 66.7172C97.1871 68.5228 97.0004 70.305 96.6737 72.0764C95.9862 75.7901 94.8384 79.3565 93.1643 82.7414C91.5157 86.0859 89.307 89.0163 86.5467 91.5795Z" fill="#00CF4B"/>
<path id="Vector_9" d="M65.3317 24.7924C64.6914 25.0845 64.1806 25.4835 63.6686 25.8879C62.9328 26.4665 62.8795 27.5578 63.3954 28.5072C64.6401 30.8054 66.0842 32.9417 67.9114 34.738C68.7405 35.5544 69.6245 36.2574 70.6253 36.7014C72.6796 37.6107 74.2657 36.7542 74.6714 34.503C74.8328 33.5915 74.8012 32.6382 74.6584 31.669C74.3128 29.3311 73.5027 27.1064 72.4262 24.9626C72.0709 24.2526 71.5511 23.7206 70.7986 23.6391C70.3242 23.5856 69.8594 23.5749 69.4092 23.6476C68.0129 23.8744 66.656 24.196 65.3317 24.7924Z" fill="#FF5D5D"/>
<path id="Vector 1483 (Stroke)" fill-rule="evenodd" clip-rule="evenodd" d="M47.596 14.9301C47.7409 14.3591 48.3187 14.0144 48.8863 14.1602L59.3449 16.8468L51.1992 23.5933C50.7469 23.968 50.0783 23.9028 49.7059 23.4478C49.3335 22.9928 49.3983 22.3203 49.8506 21.9457L54.7671 17.8737L48.3614 16.2281C47.7937 16.0823 47.451 15.5012 47.596 14.9301Z" fill="black"/>
<path id="Vector 1484 (Stroke)" fill-rule="evenodd" clip-rule="evenodd" d="M74.6078 16.5882C74.4732 17.1618 73.9017 17.517 73.3315 17.3815L64.6917 15.3289L71.4866 10.0327C71.9497 9.67166 72.616 9.75668 72.9749 10.2226C73.3338 10.6884 73.2493 11.3587 72.7861 11.7197L69.5028 14.2789L73.8192 15.3044C74.3894 15.4398 74.7425 16.0146 74.6078 16.5882Z" fill="black"/>
</g>
<path id="Vector 1485" d="M4.58888 36.7334L6.28368 25.465L19.2167 33.7771L4.58888 36.7334Z" fill="white"/>
<path id="Vector 1486" d="M24.4481 26.7435L19.8982 6.70167L28.4105 4.09957L24.4481 26.7435Z" fill="white"/>
<path id="Vector 1487" d="M20.6482 29.8217L9.23917 2.07202L3.67779 9.39465L20.6482 29.8217Z" fill="white"/>
</g>
</svg>

<svg xmlns="http://www.w3.org/2000/svg" width="120" height="119" fill="none"><path fill="#DBFF9E" d="M71.124 77.48c-1.562.62-3.209 1.095-4.844 1.6-1.424.443-2.854.865-4.352 1.226-.038-.081-.023-.164.009-.284 1.056-.736 2.106-1.413 3.292-1.846 1.895-.694 3.839-1.001 5.895-.696Z"/><path fill="#00C62E" d="M64.245 76.59c.213-1.025.631-1.996 1.006-3.026a60.133 60.133 0 0 0 9.508-1.06c.566-.111 1.125-.24 1.688-.355.113-.023.23-.09.383.049-3.773 2.674-8.01 3.94-12.585 4.392Z"/><path fill="#00CF4B" d="M29.513 31.854c.11-.164.24-.269.341-.395 2.228-2.792 4.838-5.18 7.713-7.267.842-.613 1.37-1.315 1.676-2.324.963-3.183 2.107-6.303 3.547-9.304.923-1.923 2.04-3.728 3.495-5.301 1.203-1.298 2.552-2.39 4.218-3.042 1.474-.576 2.987-.777 4.528-.35 1.83.508 3.1 1.718 3.963 3.39.371.717.611 1.485.89 2.238.04.111.048.248.222.325.223-.12.187-.36.201-.568.062-.824.149-1.648.376-2.444.556-1.946 1.663-3.44 3.554-4.262 1.532-.666 3.12-.672 4.716-.311 2.16.484 3.99 1.62 5.653 3.037 1.525 1.3 2.858 2.791 4.054 4.4 1.71 2.301 3.336 4.664 4.77 7.148.443.769 1.035 1.223 1.84 1.528 2 .764 3.92 1.706 5.754 2.822 3.889 2.369 7.298 5.267 9.989 8.992 1.292 1.788 2.221 3.747 2.983 5.805.532 1.438.919 2.915 1.086 4.44.393 3.568-.199 6.991-1.564 10.295-1.472 3.562-3.647 6.64-6.36 9.348a38.28 38.28 0 0 1-2.398 2.228c-.314.265-.314.289-.038.58.41.436.832.859 1.252 1.286 3.437 3.492 6.023 7.564 8.102 11.982a57.936 57.936 0 0 1 3.136 8.198c.143.477.353.655.866.746 4.294.756 7.048 3.317 8.209 7.492 1.044 3.754.265 7.278-1.767 10.55-.261.418-.556.819-.866 1.203-.176.22-.197.365.025.566.382.346.739.717 1.099 1.086 1.356 1.39 2.634 2.841 3.677 4.489.688 1.086 1.263 2.221 1.479 3.511.291 1.733-.375 3.158-1.901 4.006-.969.537-2.028.77-3.117.9-2.036.246-4.065.096-6.083-.196-5.391-.781-10.576-2.361-15.666-4.254-1.244-.463-2.402-.657-3.686-.262-1.018.314-2.085.444-3.191.6-.295-.248-.161-.506-.053-.745 1.1-2.399 1.71-4.935 2.024-7.543.223-1.861.214-3.733.083-5.609-.214-3-.887-5.893-1.893-8.718-.042-.12-.042-.244-.042-.417.042-.508.382-.772.675-1.052 2.121-2.019 3.861-4.332 5.264-6.902 1.631-2.986 2.79-6.155 3.609-9.455.594-2.395.978-4.81.861-7.288-.008-.165.004-.331-.017-.496-.1-.764-.312-.95-1.073-.962-1.03-.015-1.97.38-2.937.649-3.359.934-6.29 2.706-9.121 4.684-1.585 1.108-3.187 2.194-4.507 3.64-.384.42-.925.605-1.43.836-2.062.939-4.192 1.686-6.422 2.299-2.998-.318-5.735.292-8.243 1.897-.325.207-.624.48-1.095.435-.125-.096-.178-.2-.153-.296.25-.986.412-2.009 1.108-2.869 1.379-.435 2.777-.555 4.13-.898 2.572-.656 4.961-1.716 7.195-3.14.172-.109.368-.18.465-.267-1.01.318-2.124.487-3.225.709-2.215.446-4.462.634-6.704.856-.249.025-.495.021-.76-.135-.331-.437-.1-.828.023-1.208 1.906-5.907 3.853-11.8 5.824-17.684.754-2.25 1.433-4.52 2.19-6.768.38-1.13.28-1.33-.857-1.723-3.3-1.141-6.592-2.305-9.89-3.45-7.14-2.48-14.275-4.972-21.42-7.432a2108.93 2108.93 0 0 1-9.37-3.253c-.373-.13-.79-.173-1.016-.606Z"/><path fill="#FE49A9" d="M24.34 29.885a.996.996 0 0 1 1.196-.64l39.612 10.443c.563.148.882.745.693 1.296L43.52 105.998a.996.996 0 0 1-1.27.618L3.657 93.207a1.004 1.004 0 0 1-.62-1.274L24.34 29.885Z"/><path fill="#fff" fill-rule="evenodd" d="M63.422 40.267 24.252 30.14 2.34 93.964 40.441 107.2l22.98-66.933Zm0 0 8.458 6.42-9.525-3.31 1.067-3.11Z" clip-rule="evenodd"/><path fill="#FE49A9" d="m24.352 29.855 2.679.93-22.61 65.85-2.097-2.626 22.028-64.154Z"/><rect width="69.528" height="51.89" fill="#FE49A9" rx="1" transform="matrix(-.32474 .9458 .94461 .32818 25.387 30.314)"/><path fill="#DBFF9E" d="M55.036 102.694c.664-.057 1.3-.076 1.98-.113.153-.318.418-.301.657-.32 7.37-.548 14.41-2.332 21.018-5.698 2.517-1.28 4.901-2.775 7.032-4.649.201-.177.413-.343.753-.311.912 2.298 1.553 4.64 1.886 7.06.707 5.118.329 10.118-1.663 14.933-.149.361-.308.72-.467 1.121-1.252.303-2.523.388-3.783.555-4.318.572-8.659.845-13.01.935-2.935.059-5.87.017-8.84-.267-.976-.636-1.421-1.633-1.964-2.54-1.82-3.048-2.99-6.349-3.67-9.83-.052-.282-.128-.564.071-.876Z"/><path fill="#00CF4B" d="M20.578 40.665c1.288.46 2.42 1.091 3.384 2.037 1.188 1.163 1.8 2.588 2.052 4.198.44 2.813-.083 5.504-1.06 8.13-.97 2.611-2.318 5.01-4.158 7.11-.96 1.098-2.081 1.992-3.424 2.575-1.526.66-3.058.75-4.628-.026-.116-.087-.182-.17-.265-.228-.963-.666-1.61-1.584-2.052-2.653a19.916 19.916 0 0 1-1.391-5.372c-.342-3.018-.155-5.976.825-8.862.849-2.497 2.247-4.578 4.515-5.997 1.778-1.114 3.685-1.451 5.73-.967.14.032.285.043.472.055ZM55.018 102.64c.77 4.392 2.295 8.454 4.784 12.133.242.359.5.705.753 1.102-1.538-.043-3.06-.286-4.58-.521a53.932 53.932 0 0 1-1.64-.28c-.361-.068-.692.024-1.028.128a74.695 74.695 0 0 1-8.671 2.137c-3.1.561-6.22.915-9.38.815-1.67-.053-3.319-.243-4.918-.758-.787-.251-1.536-.589-2.203-1.088-1.51-1.129-2.058-2.621-1.646-4.467.163-.734.473-1.407.849-2.051.585-1.003 1.32-1.891 2.134-2.715.42-.425.87-.822 1.252-1.345.54.035 1.012.254 1.496.421 5.77 1.989 11.538 3.987 17.307 5.98.233.081.466.164.704.224.58.15.942-.034 1.18-.595.08-.19.14-.389.206-.585l2.654-7.989c.184-.55.189-.548.747-.546Z"/><path fill="#FFB6DD" d="M34.895 71.85c1.553-4.085 2.963-8.142 4.765-12.25-2.698 1.41-5.472 2.107-8.152 3.06-.176.061-.358.11-.532.176-.31.119-.445-.012-.536-.308-.245-.806-.52-1.602-.775-2.401-.268-.832-.528-1.664-.792-2.496-.267-.841-.27-.845.598-1.126 2.047-.666 4.097-1.33 6.143-1.995 2.462-.802 4.93-1.596 7.385-2.417.5-.168.945-.163 1.436.027 1.426.557 2.863 1.075 4.296 1.612.703.262.709.272.444.983-2.574 6.921-5.149 13.842-7.726 20.763-.969 2.6-1.944 5.196-2.912 7.795-.085.23-.157.466-.246.728.736.411 1.524.615 2.273.907 1.194.465 2.398.891 3.601 1.33.294.107.487.236.346.612-.71 1.86-1.403 3.725-2.127 5.651-1.36-.499-2.672-.977-3.984-1.462-4.97-1.847-9.94-3.694-14.913-5.544-.176-.064-.348-.14-.527-.198-.31-.097-.36-.276-.243-.573.338-.87.65-1.75.98-2.628.306-.816.649-1.622.912-2.453.154-.495.385-.545.822-.38 1.663.636 3.333 1.248 4.999 1.868.176.064.358.115.527.194.264.132.399.042.488-.216.1-.294.225-.58.335-.874 1.029-2.765 2.061-5.537 3.115-8.385Z"/><path fill="#00CF4B" d="M86.547 91.58c-.075.07-.134.093-.179.134-3.721 3.287-8.011 5.596-12.62 7.325a56.501 56.501 0 0 1-16.625 3.521c-.923-.066-1.785-.023-2.646-.027-2.05-.011-4.008-.416-5.786-1.473-2.24-1.332-3.406-3.35-3.558-5.946-.126-2.102.136-4.16.844-6.153 1.042-2.933 3.007-4.911 5.941-5.931 1.653-.577 3.344-1.01 5.035-1.443 1.612-.414 3.225-.824 4.88-1.255.276-.273.587-.376.906-.463a115.922 115.922 0 0 0 6.948-2.128c.457-.156.917-.2 1.433-.228.498-.073.914-.26 1.34-.404 1.91-.638 3.813-1.293 5.638-2.158.34-.162.65-.345.9-.63.78-.883 1.695-1.61 2.65-2.298a91.742 91.742 0 0 1 5.121-3.438c2.404-1.498 5.035-2.408 7.747-3.125.48-.126.974-.14 1.464-.185.399-.037.666.127.84.486.149.303.206.623.231.956.136 1.806-.05 3.588-.377 5.36-.688 3.713-1.836 7.28-3.51 10.664-1.648 3.345-3.857 6.275-6.617 8.838Z"/><path fill="#FF5D5D" d="M65.332 24.792c-.64.292-1.151.691-1.663 1.096-.736.578-.79 1.67-.274 2.62 1.245 2.297 2.69 4.434 4.516 6.23.83.816 1.713 1.52 2.714 1.963 2.055.91 3.64.053 4.046-2.198.162-.911.13-1.865-.013-2.834-.345-2.338-1.155-4.563-2.232-6.706-.355-.71-.875-1.242-1.627-1.324a5.116 5.116 0 0 0-1.39.009c-1.396.226-2.753.548-4.077 1.144Z"/><path fill="#000" fill-rule="evenodd" d="M47.596 14.93a1.06 1.06 0 0 1 1.29-.77l10.459 2.687-8.146 6.746c-.452.375-1.12.31-1.493-.145a1.071 1.071 0 0 1 .145-1.502l4.916-4.072-6.406-1.646a1.068 1.068 0 0 1-.765-1.298ZM74.608 16.588a1.06 1.06 0 0 1-1.276.793l-8.64-2.052 6.795-5.296a1.057 1.057 0 0 1 1.488.19 1.071 1.071 0 0 1-.189 1.497l-3.283 2.559 4.316 1.025c.57.136.924.71.789 1.284Z" clip-rule="evenodd"/><path fill="#fff" d="m4.589 36.733 1.695-11.268 12.933 8.312-14.628 2.956ZM24.448 26.744l-4.55-20.042L28.41 4.1l-3.962 22.644ZM20.648 29.822 9.24 2.072 3.678 9.395l16.97 20.427Z"/></svg>
